Newaita-dark/actions/32/outbox.svg

<svg height="32" viewBox="0 0 32 32" width="32" xmlns="http://www.w3.org/2000/svg"><g fill="#e0e0e0"><path d="m5.292969 2.894531c-1.464844 0-2.648438 1.183594-2.648438 2.648438v21.167969c0 1.464843 1.183594 2.644531 2.648438 2.644531h21.167969c1.464843 0 2.644531-1.179688 2.644531-2.644531v-21.167969c0-1.464844-1.179688-2.648438-2.644531-2.648438h-4.628907v2.648438h3.304688c.734375 0 1.324219.589843 1.324219 1.320312v18.523438c0 .734375-.589844 1.324219-1.324219 1.324219h-18.523438c-.730469 0-1.320312-.589844-1.320312-1.324219v-18.523438c0-.730469.589843-1.320312 1.320312-1.320312h3.308594v-2.648438zm0 0"/><path d="m19.824219 17.4375c-.726563.011719-1.304688.609375-1.296875 1.335938 0 1.492187-1.160156 2.652343-2.652344 2.652343s-2.652344-1.160156-2.652344-2.652343c.007813-.355469-.132812-.699219-.382812-.949219-.253906-.253907-.597656-.390625-.953125-.386719-.050781 0-.101563.003906-.152344.011719h-7.765625v2.644531h6.789062c.59375 2.273438 2.667969 3.964844 5.117188 3.964844s4.527344-1.691406 5.117188-3.964844h6.792968v-2.644531h-7.769531c-.0625-.007813-.125-.011719-.191406-.011719zm0 0"/><path d="m14.554688 8.867188h2.644531v6.597656c0 .367187-.292969.660156-.660157.660156h-1.324218c-.367188 0-.660156-.292969-.660156-.660156zm0 0"/><path d="m20.507812 9.527344h-9.261718l4.628906-6.613282zm0 0"/></g></svg>

<?xml version="1.0" encoding="UTF-8"?>
<svg xmlns="http://www.w3.org/2000/svg" xmlns:xlink="http://www.w3.org/1999/xlink" width="32px" height="32px" viewBox="0 0 32 32" version="1.1">
<g id="surface1">
<path style=" stroke:none;fill-rule:nonzero;fill:rgb(87.843138%,87.843138%,87.843138%);fill-opacity:1;" d="M 5.292969 2.894531 C 3.828125 2.894531 2.644531 4.078125 2.644531 5.542969 L 2.644531 26.710938 C 2.644531 28.175781 3.828125 29.355469 5.292969 29.355469 L 26.460938 29.355469 C 27.925781 29.355469 29.105469 28.175781 29.105469 26.710938 L 29.105469 5.542969 C 29.105469 4.078125 27.925781 2.894531 26.460938 2.894531 L 21.832031 2.894531 L 21.832031 5.542969 L 25.136719 5.542969 C 25.871094 5.542969 26.460938 6.132812 26.460938 6.863281 L 26.460938 25.386719 C 26.460938 26.121094 25.871094 26.710938 25.136719 26.710938 L 6.613281 26.710938 C 5.882812 26.710938 5.292969 26.121094 5.292969 25.386719 L 5.292969 6.863281 C 5.292969 6.132812 5.882812 5.542969 6.613281 5.542969 L 9.921875 5.542969 L 9.921875 2.894531 Z M 5.292969 2.894531 "/>
<path style=" stroke:none;fill-rule:nonzero;fill:rgb(87.843138%,87.843138%,87.843138%);fill-opacity:1;" d="M 19.824219 17.4375 C 19.097656 17.449219 18.519531 18.046875 18.527344 18.773438 C 18.527344 20.265625 17.367188 21.425781 15.875 21.425781 C 14.382812 21.425781 13.222656 20.265625 13.222656 18.773438 C 13.230469 18.417969 13.089844 18.074219 12.839844 17.824219 C 12.585938 17.570312 12.242188 17.433594 11.886719 17.4375 C 11.835938 17.4375 11.785156 17.441406 11.734375 17.449219 L 3.96875 17.449219 L 3.96875 20.09375 L 10.757812 20.09375 C 11.351562 22.367188 13.425781 24.058594 15.875 24.058594 C 18.324219 24.058594 20.402344 22.367188 20.992188 20.09375 L 27.785156 20.09375 L 27.785156 17.449219 L 20.015625 17.449219 C 19.953125 17.441406 19.890625 17.4375 19.824219 17.4375 Z M 19.824219 17.4375 "/>
<path style=" stroke:none;fill-rule:nonzero;fill:rgb(87.843138%,87.843138%,87.843138%);fill-opacity:1;" d="M 14.554688 8.867188 L 17.199219 8.867188 L 17.199219 15.464844 C 17.199219 15.832031 16.90625 16.125 16.539062 16.125 L 15.214844 16.125 C 14.847656 16.125 14.554688 15.832031 14.554688 15.464844 Z M 14.554688 8.867188 "/>
<path style=" stroke:none;fill-rule:nonzero;fill:rgb(87.843138%,87.843138%,87.843138%);fill-opacity:1;" d="M 20.507812 9.527344 L 11.246094 9.527344 L 15.875 2.914062 Z M 20.507812 9.527344 "/>
</g>
</svg>
